X:89
T:Ale Brider
O:klezmer
M:4/4
L:1/8
Q:1/4=150
K:Gm
V:1
"Gm" D2 G2 G2 A2 |B2 B2 A2 G2 |B4 "Cm" c4 |"Gm" B2 B2 A2 G2 |
D2 G2 G2 A2 |B2 B2 A2 G2 |B4 "D7" A4 |"Gm" (G4 G4) ||
"Bb" F2 B2 B2 c2 |d2 d2 c2 B2 |"Bb" d4 "Eb" e4 |"Bb" d2 d2 c2 B2 |
F2 B2 B2 c2 |d2 d2 c2 B2 |B4 "D7" A4 |"Gm" G2 d2 B2 d2
|:"D7" c3 B(A4 |A2) c2 A2 c2 |"Gm" B3 A(G4 |G2) B2 G2 B2 |
"D" A6 d2 |1 "D7" d2 c2 B2 c2 |"Gm" (d8 |d2) d2 B2 d2
:|2 "D7" d2 c2 B2 A2 |"Gm" (G8 |G8) ||





